src/icons/elm.svg

<svg xml:space="preserve" xmlns="http://www.w3.org/2000/svg" viewBox="0 0 323 323"><path fill="#f0ad00" d="m106.716 99.763 54.785 54.782 54.779-54.782z"/><path fill="#7fd13b" d="M96.881 89.93H216.83l-55.18-55.184H41.7zm131.546 11.593 59.705 59.704L228.16 221.2l-59.705-59.704z"/><path fill="#60b5cc" d="m175.552 34.746 112.703 112.695V34.746z"/><path fill="#5a6378" d="m34.746 281.3 119.8-119.8-119.8-119.8z"/><path fill="#f0ad00" d="m288.255 175.01-53.148 53.149 53.148 53.14z"/><path fill="#60b5cc" d="M281.3 288.254 161.5 168.455l-119.8 119.8z"/></svg>

<svg width="323" height="323" viewBox="0 0 323 323" fill="none" xmlns="http://www.w3.org/2000/svg">
<path d="M106.716 99.763L161.501 154.545L216.28 99.763H106.716Z" fill="#60B5CC"/>
<path d="M96.881 89.93H216.83L161.65 34.746H41.7L96.881 89.93ZM228.427 101.523L288.132 161.227L228.16 221.2L168.455 161.496L228.427 101.523Z" fill="#60B5CC"/>
<path d="M175.552 34.746L288.255 147.441V34.746H175.552Z" fill="#60B5CC"/>
<path d="M34.746 281.3L154.546 161.5L34.746 41.7V281.3Z" fill="#60B5CC"/>
<path d="M288.255 175.01L235.107 228.159L288.255 281.299V175.01Z" fill="#60B5CC"/>
<path d="M281.3 288.254L161.5 168.455L41.7 288.255L281.3 288.254Z" fill="#60B5CC"/>
</svg>
